X:1
T:Title
L:1/8
M:2/4
I:linebreak $
K:C
V:1 treble 
V:1
 GECD | EF E2 | GECD | EF E2 | AFDE | FG A2 | AGED | EF E2 | A,B,CD | CB, C2 | A,B,CD | CB, C2 | %12
 B,CDE | FF/E/ F z | GFED | EG E2 |] %16

